svg/timer_alert_outline.svg

<svg xmlns="http://www.w3.org/2000/svg" viewBox="0 0 24 24"><path d="M9 8h2v6H9zm4-7H7v2h6zm4.03 6.39A8.96 8.96 0 0 1 19 13c0 4.97-4 9-9 9a9 9 0 0 1 0-18c2.12 0 4.07.74 5.62 2l1.42-1.44c.51.44.96.9 1.41 1.41zM17 13c0-3.87-3.13-7-7-7s-7 3.13-7 7 3.13 7 7 7 7-3.13 7-7m4-6v6h2V7zm0 10h2v-2h-2z"/></svg>

<svg xmlns="http://www.w3.org/2000/svg" id="mdi-timer-alert-outline" viewBox="0 0 24 24"><path d="M9 8H11V14H9V8M13 1H7V3H13V1M17.03 7.39C18.26 8.93 19 10.88 19 13C19 17.97 15 22 10 22C5.03 22 1 17.97 1 13S5.03 4 10 4C12.12 4 14.07 4.74 15.62 6L17.04 4.56C17.55 5 18 5.46 18.45 5.97L17.03 7.39M17 13C17 9.13 13.87 6 10 6S3 9.13 3 13 6.13 20 10 20 17 16.87 17 13M21 7V13H23V7H21M21 17H23V15H21V17Z" /></svg>
